X: 4183
M: C|
L: 1/8
K: Am	% and C major
|:\
fedf edce |[1 dcBA ^G2E2 :|[2 edcB A2B2 |]
|:\
c2(ed) cGEG | cdef gedc |\
[1 B2(dc) BGBd | fedc BGAB :|\
[2 afge fdec | dBGB cedB |]


